X:1
T:Ach ihr zarte und  schöne
T:Giovanni Giacomo Gastoldi
T:Source : Tricinia---Johann-Jacob Gastoldi und anderer Autorn---Nürnberg---P.Kauffmann---1607. Editor : André Vierendeels (14/03/17).
T:Notes : Original clefs : C1, C1, F4 Editorial accidentals above the staff Text Middle German by Valentin Hauszmann
T:Ach ihr zarte und  schöne
T:©
T:©
C:Giovanni Giacomo Gastoldi
Z:©
%%score [ 1 2 3 ]
L:1/8
Q:1/4=101
M:4/4
K:F
V:1 treble nm="Soprano 1" snm="S 1"
V:2 treble nm="Soprano 2" snm="S 2"
V:3 bass nm="Bass" snm="B"
V:1
"^1)" d8 | c6 B2- | BA G2 A4 | A2 ^F2 F2 G2 | A3 G AB c2 | G2 B4 A2 | B4 z2 d2 | f6 d2 | d6 B2 | %9
w: Ach,|ihr zar-|* te und schö-|ne, wie habt ihr|mich mit eu- rer gunst|be- ses- *|sen, mir|schmäckt kein|trinckn noch|
w: O|hold- se-|* li- ges Her-|tze, wie kan ich|mich doch eu- rer Kunsth-|schafft mas- *|sen, ich|will' er-|ken- nen|
 A2 G4 ^F2 |[M:2/4] G4 ::[M:4/4] z2 =B4 c2- | c2 =B2 c2 c2 | d4 d4 | z4 z2 B2 | B2 A2 G2 F2 | %16
w: es- * *|sen,|ihr seyt,|_ es ist nicht|oh- ne,|die|mir all au- gen-|
w: las- * *|sen,|und meld|_ es mit keim|scher- ze,|wenn|ich eur kla- re|
 G4 A2 A2- | A2 G2 ^F4 | ^F4 A2 Bc | d6 c2 | A4 !fermata!G4 :| %21
w: blick ligt in|_ ge- dan-|cken, sie thun von|euch nicht|wan- cken.|
w: äug- lein se-|* he blin-|cken, sie thun mich|sehr er|qui- cken.|
V:2
"^2)""^1)" B8 | A6 G2- | G^F G2 F4 | ^F2 A2 A2 B2 | c3 B cd _e2- | e2 d2 c4 | d8 | z2 d2 f4- | %8
w: Ach,|ihr zar-|* te und schö-|ne, wie habt ihr|mich mit eu- rer gunst|_ be- ses-|sen,|mir schmäckt|
w: Ach,|ihr lieb-|* li- che Wan-|gen, wie soll ich|euch doch nur ge- nug-|* sam prei-|sen,|und euch|
 f2 d2 d4- | d2 B2 A4 |[M:2/4] G4 ::[M:4/4] z2 d4 _e2- | e2 d2 c2 A2 | B4 B2 d2 | d2 c2 B4 | %15
w: _ kein trinckn|_ noch es-|sen,|ihr seyt,|_ es is nicht|oh- ne, die|mir all au-|
w: _ Lieb- dienst|_ er- wei-|sen?|Nun hab|_ ichs an- ge-|fan- gen, musz|fa- hren fort|
 c4 d4- | d4 ^c4 | d2 B2 A4 | A4 ^F2 GA | B4 B2 G2- | G2 ^F2 !fermata!G4 :| %21
w: gen- blick|_ ligt|in ge- dan-|cken, sie thun von|euch nicht wan-|* * cken.|
w: euer gut|_ lob|ausz- zu- strei-|chen, Kans a- ber|nicht er- rei-|* * chen,|
V:3
"^3)""^1)""^4)" B,,8 | F,6 G,2- | G,D, _E,2 D,4 | D,2 D,2 D,2 G,2 | F,4 F,2 C,D, | _E,2 B,,2 F,4 | %6
w: Ach,|ihr zar-|* te und schö-|ne, wie habt ihr|mich mit eu- rer|gunst be- ses-|
w: O|Zier al-|* ler Jung- frau-|en, was euch von|mir disz mal zu|dienst er- schei-|
 B,,2 G,2 B,4- | B,2 B,2 B,4- | B,4 G,4 | D,8 |[M:2/4] G,,4 ::[M:4/4] G,4 G,4 | G,4 C,2 F,2 | %13
w: sen, mir schmäckt|_ kein trinckn|_ noch|es-|sen,|ihr seyt,|es ist nicht|
w: nen, ist al|_ les gut|_ ge-|mei-|net,|ihr mögt|mirs wol zu-|
 B,,4 B,,2 B,2 | B,2 A,2 G,4 | F,4 B,4- | B,4 A,4 | ^F,2 G,2 D,4 | D,4 z4 | D,2 E,F, G,2 C,2 | %20
w: oh- ne, die|mir all au-|gen- blick|_ ligt|in ge- dan-|cken,|sie thun von euch nicht|
w: trau- en, bin|ich euch feind,|so wünsch|_ ich|mir selbs e-|ben,|den Todt, und nicht das|
 D,4 !fermata!G,,4 :| %21
w: wan- cken.|
w: le- ben.|

